src/icons/hashiCorpVault.svg

<svg width="33" height="33" viewBox="0 0 33 33" fill="none" xmlns="http://www.w3.org/2000/svg">
<path d="M16.7111 16.5294C17.2444 16.5294 17.6444 16.0849 17.6444 15.5961C17.6444 15.1072 17.2444 14.6627 16.7111 14.6627C16.1778 14.6627 15.7778 15.1072 15.7778 15.5961C15.7778 16.0849 16.1778 16.5294 16.7111 16.5294ZM13.9111 13.9516C14.4444 13.9516 14.8444 13.5072 14.8444 13.0183C14.8444 12.4849 14.4444 12.0849 13.9111 12.0849C13.3778 12.0849 12.9778 12.5294 12.9778 13.0183C12.9778 13.5516 13.3778 13.9516 13.9111 13.9516V13.9516ZM16.7111 13.9516C17.2444 13.9516 17.6444 13.5072 17.6444 13.0183C17.6444 12.4849 17.2444 12.0849 16.7111 12.0849C16.1778 12.0849 15.7778 12.5294 15.7778 13.0183C15.7778 13.5516 16.1778 13.9516 16.7111 13.9516ZM19.5111 13.9516C20.0444 13.9516 20.4444 13.5072 20.4444 13.0183C20.4444 12.4849 20.0444 12.0849 19.5111 12.0849C18.9778 12.0849 18.5778 12.5294 18.5778 13.0183C18.5778 13.5516 19.0222 13.9516 19.5111 13.9516ZM13.9111 11.4183C14.4444 11.4183 14.8444 10.9738 14.8444 10.4849C14.8444 9.95161 14.4444 9.55161 13.9111 9.55161C13.3778 9.55161 12.9778 9.99605 12.9778 10.4849C12.9778 11.0183 13.3778 11.4183 13.9111 11.4183ZM16.7111 11.4183C17.2444 11.4183 17.6444 10.9738 17.6444 10.4849C17.6444 9.95161 17.2444 9.55161 16.7111 9.55161C16.1778 9.55161 15.7778 9.99605 15.7778 10.4849C15.7778 11.0183 16.1778 11.4183 16.7111 11.4183ZM19.5111 11.4183C20.0444 11.4183 20.4444 10.9738 20.4444 10.4849C20.4444 9.95161 20.0444 9.55161 19.5111 9.55161C18.9778 9.55161 18.5778 9.99605 18.5778 10.4849C18.5778 11.0183 19.0222 11.4183 19.5111 11.4183ZM16.7111 8.88494C17.2444 8.88494 17.6444 8.44049 17.6444 7.95161C17.6444 7.41827 17.2444 7.01827 16.7111 7.01827C16.1778 7.01827 15.7778 7.46272 15.7778 7.95161C15.7778 8.44049 16.1778 8.88494 16.7111 8.88494ZM19.5111 8.88494C20.0444 8.88494 20.4444 8.44049 20.4444 7.95161C20.4444 7.41827 20.0444 7.01827 19.5111 7.01827C18.9778 7.01827 18.5778 7.46272 18.5778 7.95161C18.5778 8.44049 19.0222 8.88494 19.5111 8.88494ZM13.9111 8.88494C14.4444 8.88494 14.8444 8.44049 14.8444 7.95161C14.8444 7.41827 14.4444 7.01827 13.9111 7.01827C13.3778 7.01827 12.9778 7.46272 12.9778 7.95161C12.9778 8.44049 13.3778 8.88494 13.9111 8.88494ZM16.3556 32.1738L0 0.173828H32.7111L16.3556 32.1738Z" fill="black"/>
</svg>

<svg xmlns="http://www.w3.org/2000/svg" fill="none" viewBox="0 0 33 33">
  <defs/>
  <path fill="#000" d="M16.711 16.53a.939.939 0 00.933-.934c0-.489-.4-.933-.933-.933a.939.939 0 00-.933.933c0 .489.4.933.933.933zm-2.8-2.578a.939.939 0 00.933-.934c0-.533-.4-.933-.933-.933a.939.939 0 00-.933.933c0 .534.4.934.933.934zm2.8 0a.939.939 0 00.933-.934c0-.533-.4-.933-.933-.933a.939.939 0 00-.933.933c0 .534.4.934.933.934zm2.8 0a.939.939 0 00.933-.934c0-.533-.4-.933-.933-.933a.939.939 0 00-.933.933c0 .534.444.934.933.934zm-5.6-2.534a.939.939 0 00.933-.933c0-.533-.4-.933-.933-.933a.939.939 0 00-.933.933c0 .533.4.933.933.933zm2.8 0a.939.939 0 00.933-.933c0-.533-.4-.933-.933-.933a.939.939 0 00-.933.933c0 .533.4.933.933.933zm2.8 0a.939.939 0 00.933-.933c0-.533-.4-.933-.933-.933a.939.939 0 00-.933.933c0 .533.444.933.933.933zm-2.8-2.533a.939.939 0 00.933-.933c0-.534-.4-.934-.933-.934a.939.939 0 00-.933.934c0 .488.4.933.933.933zm2.8 0a.939.939 0 00.933-.933c0-.534-.4-.934-.933-.934a.939.939 0 00-.933.934c0 .488.444.933.933.933zm-5.6 0a.939.939 0 00.933-.933c0-.534-.4-.934-.933-.934a.939.939 0 00-.933.934c0 .488.4.933.933.933zm2.445 23.289L0 .174h32.711l-16.355 32z"/>
</svg>
